public/images/icons/dashboard.svg

<svg width="20" height="20" viewBox="0 0 20 20" xmlns="http://www.w3.org/2000/svg">
  <path d="M0 1.75C0 0.783502 0.783502 0 1.75 0H6.75C7.7165 0 8.5 0.783502 8.5 1.75V8.75C8.5 9.7165 7.7165 10.5 6.75 10.5H1.75C0.783502 10.5 0 9.7165 0 8.75V1.75ZM1.75 1.5C1.61193 1.5 1.5 1.61193 1.5 1.75V8.75C1.5 8.88807 1.61193 9 1.75 9H6.75C6.88807 9 7 8.88807 7 8.75V1.75C7 1.61193 6.88807 1.5 6.75 1.5H1.75ZM11 1.75C11 0.783502 11.7835 0 12.75 0H17.75C18.7165 0 19.5 0.783502 19.5 1.75V4.75C19.5 5.7165 18.7165 6.5 17.75 6.5H12.75C11.7835 6.5 11 5.7165 11 4.75V1.75ZM12.75 1.5C12.6119 1.5 12.5 1.61193 12.5 1.75V4.75C12.5 4.88807 12.6119 5 12.75 5H17.75C17.8881 5 18 4.88807 18 4.75V1.75C18 1.61193 17.8881 1.5 17.75 1.5H12.75ZM11 10.75C11 9.7835 11.7835 9 12.75 9H17.75C18.7165 9 19.5 9.7835 19.5 10.75V17.75C19.5 18.7165 18.7165 19.5 17.75 19.5H12.75C11.7835 19.5 11 18.7165 11 17.75V10.75ZM12.75 10.5C12.6119 10.5 12.5 10.6119 12.5 10.75V17.75C12.5 17.8881 12.6119 18 12.75 18H17.75C17.8881 18 18 17.8881 18 17.75V10.75C18 10.6119 17.8881 10.5 17.75 10.5H12.75ZM0 14.75C0 13.7835 0.783502 13 1.75 13H6.75C7.7165 13 8.5 13.7835 8.5 14.75V17.75C8.5 18.7165 7.7165 19.5 6.75 19.5H1.75C0.783502 19.5 0 18.7165 0 17.75V14.75ZM1.75 14.5C1.61193 14.5 1.5 14.6119 1.5 14.75V17.75C1.5 17.8881 1.61193 18 1.75 18H6.75C6.88807 18 7 17.8881 7 17.75V14.75C7 14.6119 6.88807 14.5 6.75 14.5H1.75Z"/>
</svg>

<svg xmlns="http://www.w3.org/2000/svg" width="20" height="20"><path d="M0 1.75A1.75 1.75 0 0 1 1.75 0h5A1.75 1.75 0 0 1 8.5 1.75v7a1.75 1.75 0 0 1-1.75 1.75h-5A1.75 1.75 0 0 1 0 8.75v-7zm1.75-.25a.25.25 0 0 0-.25.25v7a.25.25 0 0 0 .25.25h5A.25.25 0 0 0 7 8.75v-7a.25.25 0 0 0-.25-.25h-5zm9.25.25A1.75 1.75 0 0 1 12.75 0h5a1.75 1.75 0 0 1 1.75 1.75v3a1.75 1.75 0 0 1-1.75 1.75h-5A1.75 1.75 0 0 1 11 4.75v-3zm1.75-.25a.25.25 0 0 0-.25.25v3a.25.25 0 0 0 .25.25h5a.25.25 0 0 0 .25-.25v-3a.25.25 0 0 0-.25-.25h-5zM11 10.75A1.75 1.75 0 0 1 12.75 9h5a1.75 1.75 0 0 1 1.75 1.75v7a1.75 1.75 0 0 1-1.75 1.75h-5A1.75 1.75 0 0 1 11 17.75v-7zm1.75-.25a.25.25 0 0 0-.25.25v7a.25.25 0 0 0 .25.25h5a.25.25 0 0 0 .25-.25v-7a.25.25 0 0 0-.25-.25h-5zM0 14.75A1.75 1.75 0 0 1 1.75 13h5a1.75 1.75 0 0 1 1.75 1.75v3a1.75 1.75 0 0 1-1.75 1.75h-5A1.75 1.75 0 0 1 0 17.75v-3zm1.75-.25a.25.25 0 0 0-.25.25v3a.25.25 0 0 0 .25.25h5a.25.25 0 0 0 .25-.25v-3a.25.25 0 0 0-.25-.25h-5z"/></svg>
